X: 116
T: Dudar he maria
L: 1/8
M: 2/4
K: D
D> EF2 [I:setbarnb 1]| 
G A G F | 
E2z2 | 
F E F G | 
A4 | 
D> EF2 | 
G A G F | 
E2z2 | 
F G F E | 
D4 | 
A2d2 | 
d e f e | 
e d c B | 
A2d2 | 
d e f e | 
d f e d | 
c e d c | 
B4 | 
B d d c | 
d BA2 | 
A B B A | 
B A F3/ E/ | 
D EF2 | 
A> G G F | 
F A E E | 
D4 |]

@@@ Tune index: 8784
